public/img/header-vk.svg

<svg width="24" height="24" viewBox="0 0 24 24" fill="none" xmlns="http://www.w3.org/2000/svg">
<path d="M22.8814 18.6011C21.9829 16.9841 19.6684 15.0411 18.7129 14.1956C18.4514 13.9641 18.4234 13.5636 18.6614 13.3076C20.4849 11.3481 21.9434 9.09661 22.4454 7.73611C22.6669 7.13511 22.2084 6.50011 21.5624 6.50011H19.6859C19.0674 6.50011 18.7054 6.72211 18.5329 7.07561C17.0174 10.1811 15.7174 11.5251 14.8074 12.3106C14.2979 12.7506 13.5034 12.3861 13.5034 11.7166C13.5034 10.4266 13.5034 8.75911 13.5034 7.57661C13.5034 7.00311 13.0344 6.53911 12.4559 6.53911L9.02794 6.50011C8.59644 6.50011 8.34994 6.98861 8.60894 7.33111L9.17494 8.14361C9.38794 8.42511 9.50294 8.76761 9.50294 9.11911L9.49994 12.7781C9.49994 13.4146 8.72844 13.7256 8.27044 13.2796C6.72094 11.7706 5.37644 8.68911 4.89244 7.21561C4.75244 6.78911 4.35294 6.50111 3.89994 6.50011L2.05144 6.49561C1.35794 6.49561 0.850944 7.15311 1.03944 7.81511C2.72844 13.7436 6.19394 19.3836 12.3699 19.9951C12.9784 20.0551 13.5034 19.5651 13.5034 18.9586V17.0356C13.5034 16.4841 13.9359 16.0101 14.4919 15.9961C14.5114 15.9956 14.5309 15.9956 14.5504 15.9956C16.1839 15.9956 18.0134 18.3731 18.6534 19.4851C18.8374 19.8051 19.1814 20.0001 19.5534 20.0001H22.0399C22.7654 20.0001 23.2309 19.2306 22.8814 18.6011Z" fill="white"/>
</svg>

<svg width="24" height="24" fill="none" xmlns="http://www.w3.org/2000/svg"><path d="M22.881 18.601c-.898-1.617-3.213-3.56-4.168-4.405a.621.621 0 01-.052-.888c1.824-1.96 3.282-4.211 3.784-5.572.222-.6-.237-1.236-.883-1.236h-1.876c-.619 0-.98.222-1.153.576-1.516 3.105-2.816 4.45-3.726 5.235-.51.44-1.304.075-1.304-.594v-4.14c0-.574-.469-1.038-1.047-1.038L9.028 6.5a.52.52 0 00-.42.831l.567.813c.213.281.328.624.328.975L9.5 12.78c0 .636-.772.947-1.23.5-1.55-1.508-2.894-4.59-3.378-6.063A1.044 1.044 0 003.9 6.5l-1.85-.004c-.693 0-1.2.657-1.012 1.32 1.69 5.928 5.155 11.568 11.33 12.18a1.04 1.04 0 001.134-1.037v-1.923c0-.552.433-1.026.989-1.04h.058c1.634 0 3.463 2.377 4.103 3.49.184.32.528.514.9.514h2.487c.725 0 1.19-.77.841-1.399z" fill="#fff"/></svg>
